X:79
T:A Bonny Lass to Marry Me
R:Reel
O:England
M:4/4
N:The Noone Lasses (2 parts of 4) (Fermanagh) Seen as a version of Lord Macdonalds - but maybe not(BStocks)
A:Lancashire
B:Winder
K:G
G2BG AGBG | DGBG AGEA | \
G2BG cBAB | G>AGE EDD2:|*
|:dedB AGAB | dgBg AGE2 | \
de/2f/2 gB AGAB | G>AGE EDD2:|**
